X:1
T:Title
L:1/8
M:4/4
K:Ab
V:1 treble nm="Grand Piano"
V:1
 z4 z2[Q:1/4=100] C2 | F2 FG A2 c2 | B2 BA G2 B2 | A2 AG F2 =EF | G6 BB | B2 B=A B2 dd | %6
 c2 c_c =c_cAG | c_cAG G2 =EG | F8 | c2 c2 A2 G2 | F6 B2 | B2 B2 G2 FE | E6 A2 | AAAG AGFE | %14
 G2 GF GFED | D2 EF GABA | c8 | c2 c2 A2 G2 | F6 B2 | B2 B2 G2 FE | E6 A2 | AAAG AGFE | %22
 G2 GF GFED | D2 D2 F2 =E2 | C6 z2 |] %25

